X: 2
T: Leather Away The Wattle-O
R: polka
M: 2/4
L: 1/8
K: Dmaj
|: dA FA | d>e fd | ed cd | e>f ge |af ge | d/e/d/B/ A>F | GB A>G |FD D2 :||: f>e fd | g>f ge | f>e fa | gf ef/g/ |af ge | d/e/d/B/ A>F | GB AG | FD D2 :|


Tune 2286	Setting 28925

